X: 1
T: Earl Of Mansfield
R: March
M: 2/4
L: 1/16
K: D
|: f<e | d2>e2 d2A2 | d>ef>g a2 g>f | e2>f2 e2A2 | c>de>f g2 f>e |
d2>e2 d2A2 | d>ef>g a2 g<f | g2e2 c2A2|d4 d2:|
|: a>g | f2>g2 f2A2 | d>ef>g a2 g>f | e2>f2 e2A2 | c>de>f g2 f>e |
f2>g2 f2A2 | d>ef>g a2 g<f | g2e2 c2A2|d4 d2:|
|: a>g | f2d2 d2a>g | f2d2 d2e>f | g2A2 c2e2| c2A2 A2[1a>g
f2d2 d2a>g | f2d2 d2e>f | g2A2 c2e2 | d4 d2 :|
[2 B>c | d2>e2 d2A2 | d>ef>g a2 g<f | g2e2 c2A2|d4 d2 ||